src/assets/vector-eye.svg

<svg width="120" height="120" viewBox="0 0 120 120" fill="none" xmlns="http://www.w3.org/2000/svg">
<circle cx="60" cy="60" r="60" fill="#0B7189"/>
<path d="M58.6954 45.0352C59.1329 44.9884 59.5704 44.9728 60.0078 44.9728C68.2883 44.9728 75.0065 51.5419 75.0065 59.9523C75.0065 68.2223 68.2883 74.9319 60.0078 74.9319C51.5867 74.9319 45.0091 68.2223 45.0091 59.9523C45.0091 59.5154 45.0247 59.0785 45.0716 58.6416C46.5246 59.3438 48.212 59.9523 50.0087 59.9523C55.5238 59.9523 60.0078 55.474 60.0078 49.9659C60.0078 48.1715 59.3985 46.4863 58.6954 45.0352ZM90.099 37.5766C97.4108 44.3486 102.301 52.3221 104.613 58.0331C105.129 59.2658 105.129 60.6389 104.613 61.8716C102.301 67.4421 97.4108 75.4156 90.099 82.328C82.7402 89.1625 72.6317 94.9046 60.0078 94.9046C47.3839 94.9046 37.2754 89.1625 29.9167 82.328C22.6048 75.4156 17.7146 67.4421 15.3867 61.8716C14.8711 60.6389 14.8711 59.2658 15.3867 58.0331C17.7146 52.3221 22.6048 44.3486 29.9167 37.5766C37.2754 30.7422 47.3839 25 60.0078 25C72.6317 25 82.7402 30.7422 90.099 37.5766ZM60.0078 37.483C47.587 37.483 37.5098 47.5474 37.5098 59.9523C37.5098 72.3573 47.587 82.4217 60.0078 82.4217C72.4286 82.4217 82.5059 72.3573 82.5059 59.9523C82.5059 47.5474 72.4286 37.483 60.0078 37.483Z" fill="white"/>
</svg>

<?xml version="1.0" encoding="utf-8"?>
<!-- Generator: Adobe Illustrator 25.4.1, SVG Export Plug-In . SVG Version: 6.00 Build 0)  -->
<svg version="1.1" id="Calque_1" xmlns="http://www.w3.org/2000/svg" xmlns:xlink="http://www.w3.org/1999/xlink" x="0px" y="0px"
	 viewBox="0 0 120 120" style="enable-background:new 0 0 120 120;" xml:space="preserve">
<style type="text/css">
	.st0{fill:#EBCA94;}
	.st1{fill:#FFFFFF;}
</style>
<circle class="st0" cx="60" cy="60" r="60"/>
<path class="st1" d="M58.7,45c0.4,0,0.9-0.1,1.3-0.1c8.3,0,15,6.6,15,15c0,8.3-6.7,15-15,15c-8.4,0-15-6.7-15-15
	c0-0.4,0-0.9,0.1-1.3c1.5,0.7,3.1,1.3,4.9,1.3c5.5,0,10-4.5,10-10C60,48.2,59.4,46.5,58.7,45z M90.1,37.6
	c7.3,6.8,12.2,14.7,14.5,20.5c0.5,1.2,0.5,2.6,0,3.8c-2.3,5.6-7.2,13.5-14.5,20.5C82.7,89.2,72.6,94.9,60,94.9s-22.7-5.7-30.1-12.6
	c-7.3-6.9-12.2-14.9-14.5-20.5c-0.5-1.2-0.5-2.6,0-3.8c2.3-5.7,7.2-13.7,14.5-20.5C37.3,30.7,47.4,25,60,25S82.7,30.7,90.1,37.6z
	 M60,37.5c-12.4,0-22.5,10.1-22.5,22.5c0,12.4,10.1,22.5,22.5,22.5S82.5,72.4,82.5,60C82.5,47.5,72.4,37.5,60,37.5z"/>
</svg>
